X:178
T:Brighton Camp TS.178
T:Girl I left behind me,The TS.178
M:C
L:1/8
Q:1/4=110
S:Thomas Sands’ MS,1810,Lincolnshire
R:country dance
O:England;Lincolnshire
Z:vmp.Ruairidh Greig, 2011
K:G
e|”as writ”d>B B>A B>GE3|({DEF}G)G G/A/ B/c/ d2B>d|d>B B>A B>G E>G|FA (D/E/F/D/)G2G:|
A|Bdef gdBG|Bdef g2 fa|gfge dB BG|FA (D/E/F/D/)G2G:|]

